src/topics/icons/mesosphere.svg

<svg height="187" preserveAspectRatio="xMidYMid" viewBox="0 0 256 187" width="256" xmlns="http://www.w3.org/2000/svg" xmlns:xlink="http://www.w3.org/1999/xlink"><linearGradient id="a" x1=".023815%" x2="100.04763%" y1="49.980907%" y2="49.980907%"><stop offset="0" stop-color="#9351e5"/><stop offset="1" stop-color="#ef468b"/></linearGradient><path d="m128.09145 186.802572c-4.023815 0-7.803762-2.194808-10.425339-5.974756l-41.7013575-61.637533-58.7111217 36.15337c-2.3167421 1.463206-4.694451 2.133842-7.0111931 2.133842-4.93831867 0-10.2424387-3.658014-10.2424387-11.766611v-129.737557c0-5.8528221 3.29221243-11.33984284 8.47439867-14.0833532 2.19480833-1.70707311 5.30412003-1.8899738 7.55989523-1.8899738h224.0533461c2.987378 0 5.30412.54870207 7.011193 1.64610622 5.426054 2.68254346 8.901167 8.29149797 8.901167 14.32722078v99.558943c0 3.353179-.97547 6.340557-2.865444 8.535365-2.011908 2.377709-4.938319 3.718981-8.169564 3.718981-2.011908 0-4.145749-.487735-6.218624-1.524173l-47.615146-23.472255-52.736366 77.976661c-2.499643 3.840915-6.27959 6.035723-10.303406 6.035723zm-42.981662-73.221243 41.396523 61.210764c.609669.914504 1.219338 1.280305 1.585139 1.280305.365802 0 .975471-.426768 1.58514-1.280305l51.943796-76.7573228-39.567516-19.509407zm-74.8063824 33.287926v5.365087zm.4267683-124.1895694v123.0921644c0 .426769.0609668.731603.0609668.975471.2438676-.060967.4877352-.243868.8535366-.426768l58.3453203-35.97047zm186.5587041 71.2093356 46.273875 22.8016198c1.280305.609669 1.646106.426768 1.646106.426768 0-.060967.243868-.548702.243868-1.585139v-92.8525844zm-176.1943317-74.9283163 58.0404859 85.7804241 51.5779948-31.7637534zm131.6275307 52.9802334 34.873065 17.1926649 44.871636-66.3319838zm-124.4334368-61.3326982 113.1545608 55.7237437 90.535842-55.7237437z" fill="url(#a)"/></svg>

<?xml version="1.0" encoding="UTF-8" standalone="no"?>
<svg width="256px" height="187px" viewBox="0 0 256 187" version="1.1" xmlns="http://www.w3.org/2000/svg" xmlns:xlink="http://www.w3.org/1999/xlink" preserveAspectRatio="xMidYMid">
    <defs>
        <linearGradient x1="0.0238151941%" y1="49.9809073%" x2="100.04763%" y2="49.9809073%" id="linearGradient-1">
            <stop stop-color="#9351E5" offset="0%"></stop>
            <stop stop-color="#EF468B" offset="100%"></stop>
        </linearGradient>
    </defs>
    <g>
        <path d="M128.09145,186.802572 C124.067635,186.802572 120.287688,184.607764 117.666111,180.827816 L75.9647535,119.190283 L17.2536318,155.343653 C14.9368897,156.806859 12.5591808,157.477495 10.2424387,157.477495 C5.30412003,157.477495 -2.84217094e-14,153.819481 -2.84217094e-14,145.710884 L-2.84217094e-14,15.973327 C-2.84217094e-14,10.1205049 3.29221243,4.63348416 8.47439867,1.8899738 C10.669207,0.182900691 13.7785187,0 16.0342939,0 L240.08764,0 L240.08764,0 L240.08764,0 L240.08764,0 C243.075018,0 245.39176,0.548702072 247.098833,1.64610622 C252.524887,4.32864968 256,9.93760419 256,15.973327 L256,115.53227 C256,118.885449 255.02453,121.872827 253.134556,124.067635 C251.122648,126.445344 248.196237,127.786616 244.964992,127.786616 L244.964992,127.786616 C242.953084,127.786616 240.819243,127.298881 238.746368,126.262443 L191.131222,102.790188 L138.394856,180.766849 C135.895213,184.607764 132.115266,186.802572 128.09145,186.802572 L128.09145,186.802572 Z M85.109788,113.581329 L126.506311,174.792093 C127.11598,175.706597 127.725649,176.072398 128.09145,176.072398 C128.457252,176.072398 129.066921,175.64563 129.67659,174.792093 L181.620386,98.0347702 L142.05287,78.5253632 L85.109788,113.581329 L85.109788,113.581329 Z M10.3034056,146.869255 L10.3034056,152.234342 L10.3034056,146.869255 L10.3034056,146.869255 L10.3034056,146.869255 Z M10.7301739,22.6796856 L10.7301739,145.77185 C10.7301739,146.198619 10.7911407,146.503453 10.7911407,146.747321 C11.0350083,146.686354 11.2788759,146.503453 11.6446773,146.320553 L69.9899976,110.350083 L10.7301739,22.6796856 L10.7301739,22.6796856 Z M197.288878,93.8890212 L243.562753,116.690641 C244.843058,117.30031 245.208859,117.117409 245.208859,117.117409 C245.208859,117.056442 245.452727,116.568707 245.452727,115.53227 L245.452727,22.6796856 L197.288878,93.8890212 L197.288878,93.8890212 Z M21.0945463,18.9607049 L79.1350322,104.741129 L130.713027,72.9773756 L21.0945463,18.9607049 L21.0945463,18.9607049 Z M152.722077,71.9409383 L187.595142,89.1336032 L232.466778,22.8016194 L152.722077,71.9409383 L152.722077,71.9409383 Z M28.2886402,10.6082401 L141.443201,66.3319838 L231.979043,10.6082401 L28.2886402,10.6082401 L28.2886402,10.6082401 Z" fill="url(#linearGradient-1)"></path>
    </g>
</svg>
